static/characters/naitoapple/front-sitting.svg

<svg xmlns="http://www.w3.org/2000/svg" xmlns:xlink="http://www.w3.org/1999/xlink" height="186" width="160"><defs><use height="2.2" width="5" xlink:href="#a" id="e"/><use height="15.95" width="16" xlink:href="#b" id="f"/><g id="d"><path d="M-15.5-41.55q-2.65-3.1-2.5-7.1-.15-5.3 5.35-9.8Q-7.15-63.5.5-64q7.6.5 13.05 5.55 5.45 4.5 5.45 9.8 0 4-2.6 7.1h.1-.05l-2.6 3.1v.8l-.2-.95-.8.05.65 9.65h.15l.25.75.2.5.2.4-.15.45-.3.75-.2.35-.9.7h-.05l-.05 1.5h.05l-.05.5h-.05l-.05.45h.05l-.25 2.65h-1.8l-.75 1.55h5.4l1.15.4q.55.55.55 1.65 0 1.05-.55 1.6-.45.45-1.15.45H8.6v1.45l-4.5-.25.65-.5q.9-.9.9-2.75 0-1.9-.9-2.8-.8-.8-2.05-.8h-6.6v1.55h6.55q.7 0 1.15.4.55.55.55 1.65 0 1.05-.55 1.6-.45.45-1.15.45H-3.9v1.4l-6.55-.35-1.95-.4q-1.45-1.7-1.75-3.65l-.1-1.2.05-.95.55-1.85h.1v-.55l.15-.15V-24q.75.6 1.55.55l.25-.05q1.9.5 3-.85.4.2.2-.15 1-.75 1.25-2.4-.05-.7-.45-2l.45-6.3-1.35-.1-.5 6.45.15.05v.05h.05l.4 1.4q.15 1.45-.95 1.9-.55.9-2.1.6h-.5q-.6-.2-1.3-.85l-.2-.35v-2.1l.25-.75h.1l.7-9.65-.85-.05-.4-.05v-.15l-2.05-2.75h.2M-13.8-22l.05.1-.05-.1m3.7-6.5v.05h.05l-.05-.05" fill="#fff" fill-rule="evenodd" transform="translate(18.6 64.6)"/><path d="M13.85-37.65L14.5-34l.15 1.95.05-.05v.1l.2 2.65v.35h-.1v.1q.25.7.6 1.1-.05.25.15.3.3 1.6-.6 2.45l-.15.2q-.15-.05-.2.1l-.25.25-.55.5q-.55.4-1.1.5h-.05l.05-1.5h.05l.9-.7.2-.35.3-.75.15-.45-.2-.4-.2-.5-.25-.75h-.15l-.65-9.65.8-.05.2.95m-1.5 17.75h2.9q1.25 0 2.05.8.9.9.9 2.8 0 1.85-.9 2.75-.8.8-2.05.8H8.6v-1.5h6.6q.7 0 1.15-.45.55-.55.55-1.6 0-1.1-.55-1.65l-1.15-.4H9.8l.75-1.55h1.8M4.1-13.05l-1.3.3h-6.7v-1.5h6.55q.7 0 1.15-.45.55-.55.55-1.6 0-1.1-.55-1.65-.45-.4-1.15-.4H-3.9v-1.55h6.6q1.25 0 2.05.8.9.9.9 2.8 0 1.85-.9 2.75l-.65.5M-13.4-24l-.55-.5-.2-.25-.2-.1-.2-.2q-.9-.85-.55-2.45.15-.05.15-.3l.55-1.1.05-.1h-.1l-.05-.35h.05l.2-2.65v-.1l.05.05.1-1.95.85-4.6.85.05-.7 9.65h-.1l-.25.75-.25.5-.15.4.15.45.25.75.2.35q.7.65 1.3.85h.5q1.55.3 2.1-.6 1.1-.45.95-1.9l-.4-1.4h-.05v-.05l-.15-.05.5-6.45 1.35.1-.45 6.3q.4 1.3.45 2-.25 1.65-1.25 2.4.2.35-.2.15-1.1 1.35-3 .85l-.25.05q-.8.05-1.55-.55" fill-rule="evenodd" transform="translate(18.6 64.6)"/><path d="M3.1 23.05q-2.65-3.1-2.5-7.1-.15-5.3 5.35-9.8Q11.45 1.1 19.1.6q7.6.5 13.05 5.55 5.45 4.5 5.45 9.8 0 4-2.6 7.1" fill="none" stroke="#000" stroke-linecap="round" stroke-linejoin="round" stroke-width="1.2"/><path d="M5.4-44.05q.15.45.45.75l.7.25.95-.6q.4-.65.4-1.65 0-1.35-.9-3.25h1.05q.9 1.6.9 3.15 0 1.55-.65 2.4-.6.8-1.6.8-1.35 0-1.9-1.4-.6 1.4-1.9 1.4-1.05 0-1.65-.85Q.6-43.9.6-45.4q0-1.55.95-3.15h1q-.85 1.9-.85 3.25 0 1 .35 1.65.4.6.95.6.4 0 .7-.3l.45-.7.1-1.15V-47H5.3v1.8l.1 1.15" fill-rule="evenodd" transform="translate(18.6 64.6)"/></g><g id="b"><path d="M8.7-1.95q0 2.65-2.2 4.6-2.2 1.9-5.3 1.9-3.05 0-5.3-1.9Q-6.3.7-6.3-1.95q0-2.7 2.2-4.65 2.25-1.9 5.3-1.9 3.1 0 5.3 1.9 2.2 1.95 2.2 4.65" fill="url(#c)" fill-rule="evenodd" transform="translate(6.8 10.9)"/><path d="M8.7-1.95q0 2.65-2.2 4.6-2.2 1.9-5.3 1.9-3.05 0-5.3-1.9Q-6.3.7-6.3-1.95q0-2.7 2.2-4.65 2.25-1.9 5.3-1.9 3.1 0 5.3 1.9 2.2 1.95 2.2 4.65z" fill="none" stroke="#000" stroke-linecap="round" stroke-linejoin="round" transform="translate(6.8 10.9)"/><path d="M2.35-7.5q.1.35-.65.7-.7.4-1.8.65l-1.95.2q-.85 0-.95-.35-.1-.3.65-.75l1.85-.6 1.9-.25q.85.1.95.4" fill-opacity=".2" fill-rule="evenodd" transform="translate(6.8 10.9)"/><path d="M-4-10.4l1.95.15 1.35 3.2L-4-10.4" fill-rule="evenodd" transform="translate(6.8 10.9)"/><path d="M-4-10.4l1.95.15 1.35 3.2z" fill="none" stroke="#000" stroke-linecap="round" stroke-linejoin="round" transform="translate(6.8 10.9)"/><path d="M-1 1.9q.2.4.05.55l-.8-.05-1-.65-.8-.85q-.15-.5.1-.6l.7.05q.5.2 1.05.7l.7.85m-3.4-3.1l-.2-.7.2-.75.5-.3q.3 0 .5.3l.25.75q0 .4-.25.7-.2.3-.5.3l-.5-.3" fill="#fff" fill-rule="evenodd" transform="translate(6.8 10.9)"/></g><linearGradient gradientTransform="matrix(-.0007 -.008 .0091 -.0006 1.2 -1.35)" gradientUnits="userSpaceOnUse" id="c" spreadMethod="pad" x1="-819.2" x2="819.2"><stop offset="0" stop-color="#c7f466"/><stop offset=".365" stop-color="#e7ac43"/><stop offset=".576" stop-color="#f84f32"/><stop offset="1" stop-color="#ff3131"/></linearGradient><path d="M.7-.3l1.85 2.2H1.5L.05.7-1.4 1.9h-1.05l1.9-2.2H.7" fill-rule="evenodd" transform="translate(2.45 .3)" id="a"/></defs><g transform="matrix(2 0 0 2 82.341 148.2)"><use height="51.85" transform="translate(-18.6 -64.6)" width="38.2" xlink:href="#d"/><use height="2.2" transform="translate(10.35 -53.3)" width="5" xlink:href="#e"/><use height="2.2" transform="translate(-5.9 -53.3)" width="5" xlink:href="#e"/><use height="15.95" transform="translate(-6 -72.95)" width="16" xlink:href="#f"/></g></svg>

<?xml version="1.0" encoding="UTF-8" standalone="no"?>
<svg
   xmlns:dc="http://purl.org/dc/elements/1.1/"
   xmlns:cc="http://creativecommons.org/ns#"
   xmlns:rdf="http://www.w3.org/1999/02/22-rdf-syntax-ns#"
   xmlns:svg="http://www.w3.org/2000/svg"
   xmlns="http://www.w3.org/2000/svg"
   xmlns:xlink="http://www.w3.org/1999/xlink"
   xmlns:sodipodi="http://sodipodi.sourceforge.net/DTD/sodipodi-0.dtd"
   xmlns:inkscape="http://www.inkscape.org/namespaces/inkscape"
   height="182"
   width="160"
   version="1.1"
   id="svg23"
   sodipodi:docname="front-sitting.svg"
   inkscape:version="1.0.1 (3bc2e813f5, 2020-09-07, custom)">
  <metadata
     id="metadata27">
    <rdf:RDF>
      <cc:Work
         rdf:about="">
        <dc:format>image/svg+xml</dc:format>
        <dc:type
           rdf:resource="http://purl.org/dc/dcmitype/StillImage" />
      </cc:Work>
    </rdf:RDF>
  </metadata>
  <sodipodi:namedview
     pagecolor="#ffffff"
     bordercolor="#666666"
     borderopacity="1"
     objecttolerance="10"
     gridtolerance="10"
     guidetolerance="10"
     inkscape:pageopacity="0"
     inkscape:pageshadow="2"
     inkscape:window-width="1920"
     inkscape:window-height="1060"
     id="namedview25"
     showgrid="false"
     inkscape:zoom="4.7826349"
     inkscape:cx="80"
     inkscape:cy="91"
     inkscape:window-x="1920"
     inkscape:window-y="20"
     inkscape:window-maximized="0"
     inkscape:current-layer="svg23" />
  <defs
     id="defs13">
    <g
       id="shape0"
       transform="matrix(1.0, 0.0, 0.0, 1.0, 18.6, 64.6)">
      <path
         d="M-15.5 -41.55 Q-18.15 -44.65 -18.0 -48.65 -18.15 -53.95 -12.65 -58.45 -7.15 -63.5 0.5 -64.0 8.1 -63.5 13.55 -58.45 19.0 -53.95 19.0 -48.65 19.0 -44.65 16.4 -41.55 L16.5 -41.55 16.45 -41.55 13.85 -38.45 13.85 -37.65 13.65 -38.6 12.85 -38.55 13.5 -28.9 13.65 -28.9 13.9 -28.15 14.1 -27.65 14.3 -27.25 14.15 -26.8 13.85 -26.05 13.65 -25.7 12.75 -25.0 12.7 -25.0 12.65 -23.5 12.7 -23.5 12.65 -23.0 12.6 -23.0 12.55 -22.55 12.6 -22.55 12.35 -19.9 10.55 -19.9 9.8 -18.35 15.2 -18.35 16.35 -17.95 Q16.9 -17.4 16.9 -16.3 16.9 -15.25 16.35 -14.7 15.9 -14.25 15.2 -14.25 L8.6 -14.25 8.6 -12.8 4.1 -13.05 4.75 -13.55 Q5.65 -14.45 5.65 -16.3 5.65 -18.2 4.75 -19.1 3.95 -19.9 2.7 -19.9 L-3.9 -19.9 -3.9 -18.35 2.65 -18.35 Q3.35 -18.35 3.8 -17.95 4.35 -17.4 4.35 -16.3 4.35 -15.25 3.8 -14.7 3.35 -14.25 2.65 -14.25 L-3.9 -14.25 -3.9 -12.85 -10.45 -13.2 -12.4 -13.6 Q-13.85 -15.3 -14.15 -17.25 L-14.25 -18.45 -14.2 -19.4 -13.65 -21.25 -13.55 -21.25 -13.55 -21.8 -13.4 -21.95 -13.4 -22.0 -13.4 -23.3 -13.4 -24.0 Q-12.65 -23.4 -11.85 -23.45 L-11.6 -23.5 Q-9.7 -23.0 -8.6 -24.35 -8.2 -24.15 -8.4 -24.5 -7.4 -25.25 -7.15 -26.9 -7.2 -27.6 -7.6 -28.9 L-7.15 -35.2 -8.5 -35.3 -9.0 -28.85 -8.85 -28.8 -8.85 -28.75 -8.8 -28.75 -8.4 -27.35 Q-8.25 -25.9 -9.35 -25.45 -9.9 -24.55 -11.45 -24.85 L-11.95 -24.85 Q-12.55 -25.05 -13.25 -25.7 L-13.45 -26.05 -13.45 -28.15 -13.2 -28.9 -13.1 -28.9 -12.4 -38.55 -13.25 -38.6 -13.65 -38.65 -13.65 -38.8 -15.7 -41.55 -15.5 -41.55 M-13.8 -22.0 L-13.75 -21.9 -13.8 -22.0 M-10.1 -28.5 L-10.1 -28.45 -10.05 -28.45 -10.1 -28.5"
         fill="#ffffff"
         fill-rule="evenodd"
         stroke="none"
         id="path862" />
      <path
         d="M13.85 -37.65 L14.5 -34.0 14.65 -32.05 14.7 -32.1 14.7 -32.0 14.9 -29.35 14.9 -29.0 14.8 -29.0 14.8 -28.9 Q15.05 -28.2 15.4 -27.8 15.35 -27.55 15.55 -27.5 15.85 -25.9 14.95 -25.05 L14.8 -24.85 Q14.65 -24.9 14.6 -24.75 L14.35 -24.5 13.8 -24.0 Q13.25 -23.6 12.7 -23.5 L12.65 -23.5 12.7 -25.0 12.75 -25.0 13.65 -25.7 13.85 -26.05 14.15 -26.8 14.3 -27.25 14.1 -27.65 13.9 -28.15 13.65 -28.9 13.5 -28.9 12.85 -38.55 13.65 -38.6 13.85 -37.65 M12.35 -19.9 L15.25 -19.9 Q16.5 -19.9 17.3 -19.1 18.2 -18.2 18.2 -16.3 18.2 -14.45 17.3 -13.55 16.5 -12.75 15.25 -12.75 L8.6 -12.75 8.6 -12.8 8.6 -14.25 15.2 -14.25 Q15.9 -14.25 16.35 -14.7 16.9 -15.25 16.9 -16.3 16.9 -17.4 16.35 -17.95 L15.2 -18.35 9.8 -18.35 10.55 -19.9 12.35 -19.9 M4.1 -13.05 L2.8 -12.75 -3.9 -12.75 -3.9 -12.85 -3.9 -14.25 2.65 -14.25 Q3.35 -14.25 3.8 -14.7 4.35 -15.25 4.35 -16.3 4.35 -17.4 3.8 -17.95 3.35 -18.35 2.65 -18.35 L-3.9 -18.35 -3.9 -19.9 2.7 -19.9 Q3.95 -19.9 4.75 -19.1 5.65 -18.2 5.65 -16.3 5.65 -14.45 4.75 -13.55 L4.1 -13.05 M-13.4 -24.0 L-13.95 -24.5 -14.15 -24.75 -14.35 -24.85 -14.55 -25.05 Q-15.45 -25.9 -15.1 -27.5 -14.95 -27.55 -14.95 -27.8 L-14.4 -28.9 -14.35 -29.0 -14.45 -29.0 -14.5 -29.35 -14.45 -29.35 -14.25 -32.0 -14.25 -32.1 -14.2 -32.05 -14.1 -34.0 -13.25 -38.6 -12.4 -38.55 -13.1 -28.9 -13.2 -28.9 -13.45 -28.15 -13.7 -27.65 -13.85 -27.25 -13.7 -26.8 -13.45 -26.05 -13.25 -25.7 Q-12.55 -25.05 -11.95 -24.85 L-11.45 -24.85 Q-9.9 -24.55 -9.35 -25.45 -8.25 -25.9 -8.4 -27.35 L-8.8 -28.75 -8.85 -28.75 -8.85 -28.8 -9.0 -28.85 -8.5 -35.3 -7.15 -35.2 -7.6 -28.9 Q-7.2 -27.6 -7.15 -26.9 -7.4 -25.25 -8.4 -24.5 -8.2 -24.15 -8.6 -24.35 -9.7 -23.0 -11.6 -23.5 L-11.85 -23.45 Q-12.65 -23.4 -13.4 -24.0"
         fill="#000000"
         fill-rule="evenodd"
         stroke="none"
         id="path864" />
      <path
         d="M-15.5 -41.55 Q-18.15 -44.65 -18.0 -48.65 -18.15 -53.95 -12.65 -58.45 -7.15 -63.5 0.5 -64.0 8.1 -63.5 13.55 -58.45 19.0 -53.95 19.0 -48.65 19.0 -44.65 16.4 -41.55"
         fill="none"
         stroke="#000000"
         stroke-linecap="round"
         stroke-linejoin="round"
         stroke-width="1.2000000000000002"
         id="path866" />
      <path
         d="M5.4 -44.05 Q5.55 -43.6 5.85 -43.3 L6.55 -43.05 7.5 -43.65 Q7.9 -44.3 7.9 -45.3 7.9 -46.65 7.0 -48.55 L8.05 -48.55 Q8.95 -46.95 8.95 -45.4 8.95 -43.85 8.3 -43.0 7.7 -42.2 6.7 -42.2 5.35 -42.2 4.8 -43.6 4.2 -42.2 2.9 -42.2 1.85 -42.2 1.25 -43.05 0.6 -43.9 0.6 -45.4 0.6 -46.95 1.55 -48.55 L2.55 -48.55 Q1.7 -46.65 1.7 -45.3 1.7 -44.3 2.05 -43.65 2.45 -43.05 3.0 -43.05 3.4 -43.05 3.7 -43.35 L4.15 -44.05 4.25 -45.2 4.25 -47.0 5.3 -47.0 5.3 -45.2 5.4 -44.05"
         fill="#000000"
         fill-rule="evenodd"
         stroke="none"
         id="path868" />
    </g>
    <g
       id="sprite0"
       transform="matrix(1.0, 0.0, 0.0, 1.0, 2.45, 0.3)">
      <use
         height="2.2"
         transform="matrix(1.0, 0.0, 0.0, 1.0, -2.45, -0.3)"
         width="5.0"
         xlink:href="#shape1"
         id="use871" />
    </g>
    <g
       id="shape1"
       transform="matrix(1.0, 0.0, 0.0, 1.0, 2.45, 0.3)">
      <path
         d="M0.7 -0.3 L2.55 1.9 1.5 1.9 0.05 0.7 -1.4 1.9 -2.45 1.9 -0.55 -0.3 0.7 -0.3"
         fill="#000000"
         fill-rule="evenodd"
         stroke="none"
         id="path874" />
    </g>
    <g
       id="sprite1"
       transform="matrix(1.0, 0.0, 0.0, 1.0, 6.8, 10.9)">
      <use
         height="15.95"
         transform="matrix(1.0, 0.0, 0.0, 1.0, -6.8, -10.9)"
         width="16.0"
         xlink:href="#shape2"
         id="use877" />
    </g>
    <g
       id="shape2"
       transform="matrix(1.0, 0.0, 0.0, 1.0, 6.8, 10.9)">
      <path
         d="M8.7 -1.95 Q8.7 0.7 6.5 2.65 4.3 4.55 1.2 4.55 -1.85 4.55 -4.1 2.65 -6.3 0.7 -6.3 -1.95 -6.3 -4.65 -4.1 -6.6 -1.85 -8.5 1.2 -8.5 4.3 -8.5 6.5 -6.6 8.7 -4.65 8.7 -1.95"
         fill="url(#gradient0)"
         fill-rule="evenodd"
         stroke="none"
         id="path880" />
      <path
         d="M8.7 -1.95 Q8.7 0.7 6.5 2.65 4.3 4.55 1.2 4.55 -1.85 4.55 -4.1 2.65 -6.3 0.7 -6.3 -1.95 -6.3 -4.65 -4.1 -6.6 -1.85 -8.5 1.2 -8.5 4.3 -8.5 6.5 -6.6 8.7 -4.65 8.7 -1.95 Z"
         fill="none"
         stroke="#000000"
         stroke-linecap="round"
         stroke-linejoin="round"
         stroke-width="1.0"
         id="path882" />
      <path
         d="M2.35 -7.5 Q2.45 -7.15 1.7 -6.8 1.0 -6.4 -0.1 -6.15 L-2.05 -5.95 Q-2.9 -5.95 -3.0 -6.3 -3.1 -6.6 -2.35 -7.05 L-0.5 -7.65 1.4 -7.9 Q2.25 -7.8 2.35 -7.5"
         fill="#000000"
         fill-opacity="0.2"
         fill-rule="evenodd"
         stroke="none"
         id="path884" />
      <path
         d="M-4.0 -10.4 L-2.05 -10.25 -0.7 -7.05 -4.0 -10.4"
         fill="#000000"
         fill-rule="evenodd"
         stroke="none"
         id="path886" />
      <path
         d="M-4.0 -10.4 L-2.05 -10.25 -0.7 -7.05 -4.0 -10.4 Z"
         fill="none"
         stroke="#000000"
         stroke-linecap="round"
         stroke-linejoin="round"
         stroke-width="1.0"
         id="path888" />
      <path
         d="M-1.0 1.9 Q-0.8 2.3 -0.95 2.45 L-1.75 2.4 -2.75 1.75 -3.55 0.9 Q-3.7 0.4 -3.45 0.3 L-2.75 0.35 Q-2.25 0.55 -1.7 1.05 L-1.0 1.9"
         fill="#ffffff"
         fill-rule="evenodd"
         stroke="none"
         id="path890" />
      <path
         d="M-4.4 -1.2 L-4.6 -1.9 -4.4 -2.65 -3.9 -2.95 Q-3.6 -2.95 -3.4 -2.65 L-3.15 -1.9 Q-3.15 -1.5 -3.4 -1.2 -3.6 -0.9 -3.9 -0.9 L-4.4 -1.2"
         fill="#ffffff"
         fill-rule="evenodd"
         stroke="none"
         id="path892" />
    </g>
    <linearGradient
       gradientTransform="matrix(-7.0E-4, -0.008, 0.0091, -6.0E-4, 1.2, -1.35)"
       gradientUnits="userSpaceOnUse"
       id="gradient0"
       spreadMethod="pad"
       x1="-819.2"
       x2="819.2">
      <stop
         offset="0.0"
         stop-color="#c7f466"
         id="stop895" />
      <stop
         offset="0.36470588235294116"
         stop-color="#e7ac43"
         id="stop897" />
      <stop
         offset="0.5764705882352941"
         stop-color="#f84f32"
         id="stop899" />
      <stop
         offset="1.0"
         stop-color="#ff3131"
         id="stop901" />
    </linearGradient>
  </defs>
  <g
     transform="matrix(2,0,0,2,82.341,144.2)"
     id="g860">
    <use
       height="51.849998"
       transform="translate(-18.6,-64.6)"
       width="38.200001"
       xlink:href="#shape0"
       id="use852"
       x="0"
       y="0" />
    <use
       height="2.2"
       transform="translate(10.35,-53.3)"
       width="5"
       xlink:href="#sprite0"
       id="use854"
       x="0"
       y="0" />
    <use
       height="2.2"
       transform="translate(-5.9,-53.3)"
       width="5"
       xlink:href="#sprite0"
       id="use856"
       x="0"
       y="0" />
    <use
       height="15.95"
       transform="translate(-6,-72.95)"
       width="16"
       xlink:href="#sprite1"
       id="use858"
       x="0"
       y="0" />
  </g>
</svg>
